public/assets/images/logo/04.svg

<svg width="120" height="39" viewBox="0 0 120 39" fill="none" xmlns="http://www.w3.org/2000/svg">
<g clip-path="url(#clip0_260_3787)">
<path d="M16.2732 26.7062C15.4921 27.4873 14.2258 27.4873 13.4448 26.7062L9.91176 23.1732C6.41251 19.674 0.5 22.1476 0.5 27.0948V31.5503C0.5 32.6549 1.39543 33.5503 2.5 33.5503H27.2179C28.3225 33.5503 29.2179 32.6549 29.2179 31.5503V18.5899C29.2179 16.8081 27.0636 15.9158 25.8037 17.1757L16.2732 26.7062Z" fill="#615EFC"/>
<path d="M13.4448 7.75423C14.2258 6.97319 15.4921 6.97319 16.2732 7.75423L19.8062 11.2873C23.3054 14.7865 29.2179 12.3129 29.2179 7.36566V2.91016C29.2179 1.80559 28.3225 0.910156 27.2179 0.910156H2.5C1.39543 0.910156 0.5 1.80559 0.5 2.91016V15.8706C0.5 17.6524 2.65428 18.5447 3.91421 17.2848L13.4448 7.75423Z" fill="#615EFC"/>
<path d="M49.0107 30.2305H42.3662V26.1172H48.7646C50.5811 26.1172 52.0986 25.7891 53.3174 25.1328C54.5479 24.4648 55.4678 23.4629 56.0771 22.1269C56.6982 20.791 57.0088 19.1211 57.0088 17.1172C57.0088 15.1133 56.7041 13.4492 56.0947 12.125C55.4854 10.8008 54.5771 9.81055 53.3701 9.1543C52.1631 8.48633 50.6689 8.15235 48.8877 8.15235H42.2256V4.03907H49.1689C51.7705 4.03907 54.0029 4.56055 55.8662 5.60352C57.7412 6.64649 59.1826 8.14649 60.1904 10.1035C61.1982 12.0605 61.7021 14.3984 61.7021 17.1172C61.7021 19.8359 61.1982 22.1797 60.1904 24.1484C59.1826 26.1055 57.7295 27.6113 55.8311 28.666C53.9443 29.709 51.6709 30.2305 49.0107 30.2305ZM44.8623 4.03907V30.2305H40.1162V4.03907H44.8623ZM64.6377 30.2305V10.5781H69.2607V30.2305H64.6377ZM66.958 7.81836C66.2197 7.81836 65.5869 7.57227 65.0596 7.08008C64.5322 6.5879 64.2686 5.9961 64.2686 5.30469C64.2686 4.60157 64.5322 4.00391 65.0596 3.51172C65.5869 3.01954 66.2197 2.77344 66.958 2.77344C67.6846 2.77344 68.3115 3.01954 68.8389 3.51172C69.3662 4.00391 69.6299 4.59571 69.6299 5.28711C69.6299 5.99024 69.3662 6.5879 68.8389 7.08008C68.3115 7.57227 67.6846 7.81836 66.958 7.81836ZM81.1963 38C78.7002 38 76.7373 37.5137 75.3076 36.541C73.8779 35.5801 72.958 34.4141 72.5479 33.043L76.6963 32.0234C76.8838 32.4102 77.1592 32.791 77.5225 33.166C77.8857 33.5527 78.3721 33.8691 78.9814 34.1152C79.5908 34.373 80.3584 34.5019 81.2842 34.5019C82.5967 34.5019 83.6807 34.1797 84.5361 33.5352C85.4033 32.9023 85.8369 31.8652 85.8369 30.4238V26.7148H85.5732C85.3506 27.1836 85.0107 27.6699 84.5537 28.1738C84.0967 28.666 83.4932 29.0879 82.7432 29.4394C82.0049 29.7793 81.0674 29.9492 79.9307 29.9492C78.4307 29.9492 77.0654 29.5918 75.835 28.8769C74.6162 28.1621 73.6436 27.0957 72.917 25.6777C72.2021 24.2598 71.8447 22.4844 71.8447 20.3516C71.8447 18.1953 72.2021 16.373 72.917 14.8848C73.6436 13.3965 74.6221 12.2656 75.8525 11.4922C77.083 10.7187 78.4541 10.332 79.9658 10.332C81.1143 10.332 82.0635 10.5254 82.8135 10.9121C83.5635 11.2988 84.1611 11.7676 84.6064 12.3184C85.0518 12.8574 85.3975 13.3613 85.6436 13.8301H85.8896V10.5781H90.4072V30.5469C90.4072 32.2227 90.0088 33.6113 89.2119 34.7129C88.415 35.8144 87.3193 36.6348 85.9248 37.1738C84.542 37.7246 82.9658 38 81.1963 38ZM81.2314 26.3105C82.708 26.3105 83.8447 25.7832 84.6416 24.7285C85.4502 23.6621 85.8545 22.1914 85.8545 20.3164C85.8545 19.0742 85.6787 17.9902 85.3271 17.0644C84.9756 16.1387 84.4541 15.418 83.7627 14.9023C83.0713 14.3867 82.2275 14.1289 81.2314 14.1289C80.2002 14.1289 79.3389 14.3984 78.6475 14.9375C77.9561 15.4766 77.4346 16.2148 77.083 17.1523C76.7432 18.0781 76.5732 19.1328 76.5732 20.3164C76.5732 21.5117 76.749 22.5605 77.1006 23.4629C77.4521 24.3652 77.9736 25.0684 78.665 25.5723C79.3682 26.0644 80.2236 26.3105 81.2314 26.3105ZM93.8174 30.2305V10.5781H98.4404V30.2305H93.8174ZM96.1377 7.81836C95.3994 7.81836 94.7666 7.57227 94.2393 7.08008C93.7119 6.5879 93.4482 5.9961 93.4482 5.30469C93.4482 4.60157 93.7119 4.00391 94.2393 3.51172C94.7666 3.01954 95.3994 2.77344 96.1377 2.77344C96.8643 2.77344 97.4912 3.01954 98.0186 3.51172C98.5459 4.00391 98.8096 4.59571 98.8096 5.28711C98.8096 5.99024 98.5459 6.5879 98.0186 7.08008C97.4912 7.57227 96.8643 7.81836 96.1377 7.81836ZM105.647 10.5781L109.603 17.8555L113.628 10.5781H118.532L112.626 20.4219L118.638 30.2305H113.769L109.603 23.1641L105.507 30.2305H100.603L106.562 20.4219L100.743 10.5781H105.647Z" fill="white"/>
</g>
<defs>
<clipPath id="clip0_260_3787">
<rect width="119" height="38" fill="white" transform="translate(0.5 0.910156)"/>
</clipPath>
</defs>
</svg>

<svg xmlns="http://www.w3.org/2000/svg" width="120" height="39" fill="none" viewBox="0 0 120 39"><g clip-path="url(#a)"><path fill="#615efc" d="M16.273 26.706a2 2 0 0 1-2.828 0l-3.533-3.533C6.412 19.674.5 22.148.5 27.095v4.455a2 2 0 0 0 2 2h24.718a2 2 0 0 0 2-2V18.59c0-1.782-2.154-2.674-3.414-1.414zM13.445 7.754a2 2 0 0 1 2.828 0l3.533 3.533c3.5 3.5 9.412 1.026 9.412-3.921V2.91a2 2 0 0 0-2-2H2.5a2 2 0 0 0-2 2v12.96c0 1.782 2.154 2.675 3.414 1.415z"/><path fill="#fff" d="M49.01 30.23h-6.644v-4.113h6.399q2.725 0 4.552-.984 1.845-1.002 2.76-3.006.932-2.004.932-5.01t-.914-4.992-2.725-2.97q-1.81-1.003-4.482-1.003h-6.662V4.04h6.943q3.903 0 6.697 1.565 2.813 1.563 4.324 4.5 1.512 2.935 1.512 7.013 0 4.079-1.512 7.031-1.51 2.936-4.359 4.518-2.83 1.564-6.82 1.564M44.863 4.04v26.19h-4.746V4.04zm19.776 26.19V10.578h4.623v19.653zm2.32-22.412a2.68 2.68 0 0 1-1.898-.738q-.791-.738-.791-1.775 0-1.055.79-1.793a2.68 2.68 0 0 1 1.899-.739q1.09 0 1.88.739.792.738.792 1.775 0 1.054-.791 1.793a2.66 2.66 0 0 1-1.881.738M81.196 38q-3.744 0-5.888-1.459-2.145-1.44-2.76-3.498l4.148-1.02q.282.58.826 1.143.545.58 1.46.95.913.386 2.302.386 1.97 0 3.252-.967 1.3-.95 1.3-3.111v-3.71h-.263q-.333.704-1.02 1.46-.684.738-1.81 1.265-1.108.51-2.812.51-2.25 0-4.096-1.072-1.828-1.072-2.918-3.2-1.072-2.126-1.072-5.325 0-3.235 1.072-5.467 1.09-2.234 2.936-3.393 1.845-1.16 4.113-1.16 1.722 0 2.848.58t1.792 1.406q.668.81 1.038 1.512h.246v-3.252h4.517v19.969q0 2.514-1.195 4.166t-3.287 2.46q-2.075.828-4.729.827m.035-11.69q2.216 0 3.41-1.581 1.214-1.6 1.213-4.413 0-1.863-.527-3.252t-1.564-2.162-2.532-.773q-1.546 0-2.584.809-1.035.809-1.564 2.214-.51 1.389-.51 3.164 0 1.794.528 3.147.527 1.353 1.564 2.11 1.055.737 2.566.738m12.586 3.92V10.578h4.623v19.653zm2.32-22.412a2.68 2.68 0 0 1-1.898-.738q-.79-.738-.79-1.775 0-1.055.79-1.793a2.68 2.68 0 0 1 1.899-.739q1.09 0 1.88.739.792.738.792 1.775 0 1.054-.791 1.793a2.66 2.66 0 0 1-1.881.738m9.51 2.76 3.956 7.278 4.025-7.278h4.904l-5.906 9.844 6.012 9.808h-4.869l-4.166-7.066-4.096 7.066h-4.904l5.959-9.808-5.819-9.844z"/></g><defs><clipPath id="a"><path fill="#fff" d="M.5.91h119v38H.5z"/></clipPath></defs></svg>
